Papirus/16x16/panel/airplane-mode.svg

<svg width="16" height="16" version="1.1" xmlns="http://www.w3.org/2000/svg">
 <defs>
  <style id="current-color-scheme" type="text/css">.ColorScheme-Text { color:#dfdfdf; } .ColorScheme-Highlight { color:#4285f4; } .ColorScheme-NeutralText { color:#ff9800; } .ColorScheme-PositiveText { color:#4caf50; } .ColorScheme-NegativeText { color:#f44336; }</style>
 </defs>
 <path class="ColorScheme-Text" d="m6.5 1c-0.79 0-0.78 0.03-0.53 1.03l1.62 4.97h-4.5l-1.22-1.78c-0.13-0.21-0.12-0.22-0.34-0.22h-0.22c-0.43 0-0.29 0.44-0.29 0.44l0.29 2.56-0.29 2.56s-0.13 0.44 0.26 0.44h0.25c0.21 0 0.21-0.01 0.34-0.22l1.22-1.78h4.5l-1.62 4.94c-0.26 1.04-0.27 1.06 0.53 1.06 0.43 0 0.43-0.01 0.72-0.5l3.69-5.5h3.09c0.55 0 1-0.45 1-1s-0.45-1-1-1h-3.09l-3.69-5.5c-0.27-0.46-0.28-0.5-0.66-0.5z" style="fill:currentColor"/>
</svg>

<svg xmlns="http://www.w3.org/2000/svg" width="16" height="16" version="1.1">
 <defs>
  <style id="current-color-scheme" type="text/css">
   .ColorScheme-Text { color:#dfdfdf; } .ColorScheme-Highlight { color:#4285f4; } .ColorScheme-NeutralText { color:#ff9800; } .ColorScheme-PositiveText { color:#4caf50; } .ColorScheme-NegativeText { color:#f44336; }
  </style>
 </defs>
 <path style="fill:currentColor" class="ColorScheme-Text" d="M 6.5,1 C 5.71,1 5.72,1.03 5.97,2.03 L 7.59,7 H 3.09 L 1.87,5.22 C 1.74,5.01 1.75,5 1.53,5 H 1.31 C 0.88,5 1.02,5.44 1.02,5.44 L 1.31,8 1.02,10.56 C 1.02,10.56 0.89,11 1.28,11 H 1.53 C 1.74,11 1.74,10.99 1.87,10.78 L 3.09,9 H 7.59 L 5.97,13.94 C 5.71,14.98 5.7,15 6.5,15 6.93,15 6.93,14.99 7.22,14.5 L 10.91,9 H 14 C 14.55,9 15,8.55 15,8 15,7.45 14.55,7 14,7 H 10.91 L 7.22,1.5 C 6.95,1.04 6.94,1 6.56,1 Z"/>
</svg>
